!!!COM: Bach, Johann Sebastian
!!!CDT: 1685/02/21/-1750/07/28/
!!!OTL@@DE: In allen meinen Taten
!!!SCT: BWV 244/37
!!!PC#: 50
!!!AGN: chorale
**harm	**kern	**kern	**kern	**kern
*	*ICvox	*ICvox	*ICvox	*ICvox
*	*Ibass	*Itenor	*Ialto	*Isoprn
*	*I"Bass	*I"Tenor	*I"Alto	*I"Soprano
*	*	*oclefC4	*oclefC3	*oclefC1
*	*clefF4	*clefGv2	*clefG2	*clefG2
*k[b-]	*k[b-]	*k[b-]	*k[b-]	*k[b-]
*F:	*F:	*F:	*F:	*F:
*M4/4	*M4/4	*M4/4	*M4/4	*M4/4
*met(c)	*met(c)	*met(c)	*met(c)	*met(c)
*MM100	*MM100	*MM100	*MM100	*MM100
I	4F	4c	4f	4a
=1	=1	=1	=1	=1
IV	4B-	4d	4d	4f
viio6	4G	4B-	4e	4g
I	4F	4A	4f	4a
I	4F	4A	4a	4cc
=2	=2	=2	=2	=2
IV65	4D	4F	4a	4b-
V65	4E	4c	4g	4b-
I;	4F;	4c;	4f;	4a;
I	4F	4c	4f	4a
=3	=3	=3	=3	=3
I6	4A	4c	4f	4cc
I6	4AA	4c	4f	4cc
V	4C	4c	4e	4g
iii	4AA	4c	4c	4a
=4	=4	=4	=4	=4
C:ii7	4D	4A	4c	4f
viio6	4D	4F	4B	4f
I;	4C;	4G;	4c;	4e;
F:V7	4C	4B-X	4e	4c
=5	=5	=5	=5	=5
vi	4D	4A	4d	4f
V6	4E	4G	4c	4g
I	4F	4F	4c	4a
IV	4BB-	4F	4d	4b-
=6	=6	=6	=6	=6
V;	2.C;	2.c;	2.e;	2.g;
V6/vi	4C#	4A	4e	4a
=7	=7	=7	=7	=7
vi	4D	4A	4d	4f
V6	4E	4G	4c	4g
I	4F	4F	4c	4a
g:V65	4F#	4A	4d	4cc
=8	=8	=8	=8	=8
i	4G	4G	4d	4b-
i	4GG	4B-	4g	4b-
V;	4D;	4d;	4f#;	4a;
F:vi	4d	4d	4f	4a
=9	=9	=9	=9	=9
I6	4A	4c	4f	4cc
I6	4A	4c	4f	4cc
V	4c	4e	4e	4g
I	4F	4f	4c	4a
=10	=10	=10	=10	=10
C:ii7	4D	4F	4c	4f
V43	4D	4G	4B	4f
I;	4C;	4G;	4c;	4e;
F:V2	4BB-X	4E	4G	4c
=11	=11	=11	=11	=11
I6	4AA	4F	4c	4f
ii	8GGL	8dL	8B-XL	8gL
viio6	8GGJ	8eJ	8B-J	8gJ
I	4FF	4f	4A	4a
ii43	4D	4B-	4f	4g
=12	=12	=12	=12	=12
V(64)	4C	4c	4f	4a
V7	4C	4B-	4e	4g
I;	4FF;	4A;	4c;	4f;
==	==	==	==	==
*-	*-	*-	*-	*-
!!!YOR1: 371 vierstimmige Choralges&auml;nge von Johann Sebastian Bach, 
!!!YOR2: 4th ed. by Alfred D&ouml;rffel (Leipzig: Breitkopf und H&auml;rtel, 
!!!YOR2: c.1875). 178 pp. Plate "V.A.10".  reprint: J.S. Bach, 371 Four-Part 
!!!YOR4: Chorales (New York: Associated Music Publishers, Inc., c.1940).
!!!SMS: B&H, 4th ed, Alfred D&ouml;rffel, c.1875, plate V.A.10
!!!EED:  Craig Stuart Sapp
!!!EEV:  2009/05/22
